!!!SOCIAL_FUNCTION:	war songs
!!!PDT:	1929
!!!OTL: No_137_I_Have_Gone_Through_This_Before_You.krn
!!!REG: Southwest
!!!LANG: Non-Tone
!!!LING_GROUP: Uto-Aztecan
**kern
*staff1
=1-
*clefF4
*k[f#c#g#d#]
*M2/4
4.c#\
8B\
=2
4c#\
4B\
=3
4G#\
4F#\
=4
2G#\
=5
8B\L
8G#\J
(8B\L
8G#\J)
=6||
*M3/4
2G#\
8.F#\L
16E\Jk
=7||
*M2/4
2E\
=8||
*M3/4
8F#\L
8E\J
4E\
8C#/L
8BB/J
=9||
*M2/4
4BB/
4r
=10||
*M3/4
4E\
4E\
4E\
=11||
*M2/4
4E\
8C#/L
8BB/J
=12||
*M3/4
4E\
2E\
=13||
*M2/4
4C#/
4C#/
=14
4r
4B\
=15
4c#\
4B\
=16
(4G#\
4F#\)
=17
12G#\L
12F#\
12F#\J
4F#\
=18||
*M3/4
4E\
8C#/L
8BB/J
8BB/
8r
=19||
*M2/4
4E\
4E\
=20
4F#\
8F#\L
8E\J
=21||
*M3/4
4E\
8C#/L
8BB/J
4BB/
=22
2E\
8C#/L
8BB/J
=23
4E\
2E\
=24
4E\
2E\
==
*-
